assets/svg/1F55A.svg

<svg xmlns="http://www.w3.org/2000/svg" viewBox="0 0 64 64" enable-background="new 0 0 64 64"><circle fill="#e0e7ec" cx="31.981" cy="31.981" r="29.627"/><path fill="#d1d7da" d="m52.27 47.15c-16.363 0-29.627-13.265-29.627-29.625 0-5.441 1.492-10.523 4.05-14.905-13.774 2.546-24.21 14.597-24.21 29.11 0 16.365 13.264 29.628 29.627 29.628 10.923 0 20.438-5.929 25.577-14.723-1.757.327-3.562.517-5.413.517"/><path fill="#98a9b4" d="m31.983 0c-17.635 0-31.983 14.346-31.983 31.983 0 17.634 14.348 31.981 31.983 31.981 17.634 0 31.981-14.347 31.981-31.981 0-17.637-14.347-31.983-31.981-31.983m0 57.739c-14.202 0-25.756-11.554-25.756-25.756 0-14.202 11.554-25.756 25.756-25.756 14.201 0 25.754 11.554 25.754 25.756 0 14.203-11.553 25.756-25.754 25.756"/><path fill="#85939c" d="m30.1 11.03c0-1.438.847-2.603 1.89-2.603l0 0c1.043 0 1.89 1.164 1.89 2.603v21.07c0 1.441-.847 2.604-1.89 2.604l0 0c-1.042 0-1.89-1.163-1.89-2.604v-21.07"/><path fill="#788288" d="m21.812 20.19c-.743-1.229-.618-2.663.273-3.2l0 0c.895-.54 2.222.023 2.963 1.255l7.875 13.06c.739 1.232.614 2.669-.278 3.203l0 0c-.891.538-2.22-.022-2.961-1.249l-7.872-13.07"/></svg>

<?xml version="1.0" encoding="UTF-8" standalone="no"?>
<!-- Generator: Adobe Illustrator 16.0.0, SVG Export Plug-In . SVG Version: 6.00 Build 0)  -->

<svg
   xmlns:dc="http://purl.org/dc/elements/1.1/"
   xmlns:cc="http://creativecommons.org/ns#"
   xmlns:rdf="http://www.w3.org/1999/02/22-rdf-syntax-ns#"
   xmlns:svg="http://www.w3.org/2000/svg"
   xmlns="http://www.w3.org/2000/svg"
   xmlns:sodipodi="http://sodipodi.sourceforge.net/DTD/sodipodi-0.dtd"
   xmlns:inkscape="http://www.inkscape.org/namespaces/inkscape"
   version="1.1"
   id="Layer_1"
   x="0px"
   y="0px"
   width="64px"
   height="64px"
   viewBox="0 0 64 64"
   enable-background="new 0 0 64 64"
   xml:space="preserve"
   inkscape:version="0.48.5 r10040"
   sodipodi:docname="1F55A.svg"
   inkscape:export-filename="D:\TESTINGEMOJI\SVGTEST\1F55A.png"
   inkscape:export-xdpi="90"
   inkscape:export-ydpi="90"><metadata
   id="metadata4393"><rdf:RDF><cc:Work
       rdf:about=""><dc:format>image/svg+xml</dc:format><dc:type
         rdf:resource="http://purl.org/dc/dcmitype/StillImage" /><dc:title></dc:title></cc:Work></rdf:RDF></metadata><defs
   id="defs4391" /><sodipodi:namedview
   pagecolor="#ffffff"
   bordercolor="#666666"
   borderopacity="1"
   objecttolerance="10"
   gridtolerance="10"
   guidetolerance="10"
   inkscape:pageopacity="0"
   inkscape:pageshadow="2"
   inkscape:window-width="640"
   inkscape:window-height="480"
   id="namedview4389"
   showgrid="false"
   inkscape:zoom="3.6875"
   inkscape:cx="32"
   inkscape:cy="32"
   inkscape:window-x="589"
   inkscape:window-y="275"
   inkscape:window-maximized="0"
   inkscape:current-layer="Layer_1"
   inkscape:snap-global="false" />
<g
   id="g4377">
	<circle
   fill="#E0E7EC"
   cx="31.981"
   cy="31.981"
   r="29.627"
   id="circle4379" />
	<path
   fill="#D1D7DA"
   d="M52.27,47.145c-16.363,0-29.627-13.265-29.627-29.625c0-5.441,1.492-10.523,4.05-14.905   C12.919,5.161,2.479,17.212,2.479,31.723c0,16.365,13.264,29.628,29.627,29.628c10.923,0,20.438-5.929,25.577-14.723   C55.926,46.955,54.121,47.145,52.27,47.145z"
   id="path4381" />
	<path
   fill="#98A9B4"
   d="M31.983,0C14.348,0,0,14.346,0,31.983c0,17.634,14.348,31.981,31.983,31.981   c17.634,0,31.981-14.347,31.981-31.981C63.964,14.346,49.617,0,31.983,0z M31.983,57.739c-14.202,0-25.756-11.554-25.756-25.756   c0-14.202,11.554-25.756,25.756-25.756c14.201,0,25.754,11.554,25.754,25.756C57.737,46.186,46.184,57.739,31.983,57.739z"
   id="path4383" />
	<path
   fill="#85939C"
   d="M30.104,11.033c0-1.438,0.847-2.603,1.89-2.603l0,0c1.043,0,1.89,1.164,1.89,2.603v21.071   c0,1.441-0.847,2.604-1.89,2.604l0,0c-1.042,0-1.89-1.163-1.89-2.604V11.033z"
   id="path4385" />
	<path
   fill="#788288"
   d="M21.812,20.19c-0.743-1.229-0.618-2.663,0.273-3.2l0,0c0.895-0.54,2.222,0.023,2.963,1.255l7.875,13.056   c0.739,1.232,0.614,2.669-0.278,3.203l0,0c-0.891,0.538-2.22-0.022-2.961-1.249L21.812,20.19z"
   id="path4387" />
</g>
</svg>
